X:0767
T:Miss Margt. Brown's Favourite.
M:6/8
L:1/8
Q:3/8=112
I: :: ||
Z:Jack Campin * www.campin.me.uk * 2009
K:G
g   |dBG    G>AB | E2E   TE2c  | AFD    DEF   |G2G TG2
g   |dBG   TB>cd | E2E   TE2c  | AFD    DEF   |G3   G2 :|
g/a/|bgb    afd  | efg    g>fe | dBg    dBG   |AFD  D2
g/a/|bgb    afd  | efg    gfe  |(fa).f (ge).^c|d2d Tde=f|
    (ec).e (dB).d|(ca).c (Bg).B| Ace    dBG   |FAF  DEF |
    TG>AB   EFG  | ABc    def  |(gd).B (cA).F |G3   G2 |]
<end>
<start>
